lib/flags/l/732.svg

<svg xmlns="http://www.w3.org/2000/svg" fill="none" viewBox="0 0 32 24"><mask id="732_svg__a" width="32" height="24" x="0" y="0" mask-type="alpha" maskUnits="userSpaceOnUse"><path fill="#fff" d="M0 0H32V24H0z"/></mask><g fill-rule="evenodd" clip-rule="evenodd" mask="url(#732_svg__a)"><path fill="#F7FCFF" d="M0 0H32V24H0V0Z"/><path fill="#272727" d="M0 0V8H32V0H0Z"/><path fill="#5EAA22" d="M0 16V24H32V16H0Z"/><path fill="#E31D1C" d="M0 0 16 12 0 24V0zM21.6878 15.4771C21.6878 15.4771 19.4131 14.1023 19.4131 11.8305 19.4131 9.55872 21.6878 8.36357 21.6878 8.36357 20.6696 7.71755 17.1391 8.63953 17.1391 11.9045 17.1391 15.1695 20.6365 15.7728 21.6878 15.4771zM23.5284 11.3125 22.2045 10.0721 22.6617 11.6557 21.3806 12.2626 22.9541 12.7748 23.6374 14.489 23.9363 12.9022 25.4905 13.2454 24.3145 12.097 24.7123 10.8717 23.5284 11.3125z"/></g></svg>

<svg xmlns="http://www.w3.org/2000/svg" fill="none" viewBox="0 0 32 24"><mask id="732_svg__a" width="32" height="24" x="0" y="0" maskUnits="userSpaceOnUse"><path fill="#fff" d="M0 0h32v24H0z"/></mask><g fill-rule="evenodd" clip-rule="evenodd" mask="url(#732_svg__a)"><path fill="#F7FCFF" d="M0 0h32v24H0V0z"/><path fill="#272727" d="M0 0v8h32V0H0z"/><path fill="#5EAA22" d="M0 16v8h32v-8H0z"/><path fill="#E31D1C" d="M0 0l16 12L0 24V0zm21.688 15.477s-2.275-1.375-2.275-3.646c0-2.272 2.275-3.467 2.275-3.467-1.018-.646-4.549.276-4.549 3.54 0 3.265 3.498 3.869 4.549 3.573zm1.84-4.165l-1.323-1.24.457 1.584-1.281.607 1.573.512.683 1.714.3-1.587 1.553.343-1.175-1.148.397-1.225-1.184.44z"/></g></svg>
